public/library/ondo-finance-text-light.svg

<svg width="124" height="42" viewBox="0 0 124 42" fill="none" xmlns="http://www.w3.org/2000/svg"><g clip-path="url(#clip0_16761_5352)"><path fill-rule="evenodd" clip-rule="evenodd" d="M22.5038 41.0493H21.0872C10.0538 41.0493 1.10938 32.095 1.10938 21.0493C1.10938 10.0036 10.0538 1.04932 21.0872 1.04932C32.1205 1.04932 41.0649 10.0036 41.0649 21.0493C41.0649 22.0384 40.9931 23.0112 40.8542 23.9629H38.0579C38.2187 23.0165 38.3026 22.0432 38.3026 21.0493C38.3026 11.5309 30.595 3.81475 21.0872 3.81475C11.5793 3.81475 3.87174 11.5309 3.87174 21.0493C3.87174 30.5677 11.5793 38.2839 21.0872 38.2839H31.3262C28.7115 39.8441 25.7118 40.8249 22.5038 41.0493ZM35.1534 35.3209H21.0872C13.2139 35.3209 6.8314 28.9313 6.8314 21.0493C6.8314 13.1674 13.2139 6.77771 21.0872 6.77771C28.9604 6.77771 35.3429 13.1674 35.3429 21.0493C35.3429 22.0469 35.2404 23.0216 35.0453 23.9629H32.2092C32.4514 23.0334 32.5805 22.0572 32.5805 21.0493C32.5805 14.6946 27.4348 9.54311 21.0872 9.54311C14.7395 9.54311 9.59377 14.6946 9.59377 21.0493C9.59377 27.404 14.7395 32.5554 21.0872 32.5554H37.4901C36.7948 33.5469 36.0122 34.4725 35.1534 35.3209ZM21.0872 29.5925H39.2103C39.6288 28.7045 39.984 27.7808 40.2701 26.8271H21.0872C17.8997 26.8271 15.3158 24.2403 15.3158 21.0493C15.3158 17.8584 17.8997 15.2715 21.0872 15.2715C24.2746 15.2715 26.8585 17.8584 26.8585 21.0493C26.8585 22.1136 26.5722 23.108 26.0724 23.9629H29.1113C29.441 23.0531 29.6208 22.0716 29.6208 21.0493C29.6208 16.331 25.8002 12.5061 21.0872 12.5061C16.3741 12.5061 12.5534 16.331 12.5534 21.0493C12.5534 25.7676 16.3741 29.5925 21.0872 29.5925ZM59.0732 32.55C52.5003 32.55 48.5074 27.8455 48.5074 21.05C48.5074 14.0394 52.7153 9.55003 59.0732 9.55003C65.6155 9.55003 69.6697 14.1931 69.6697 21.0193C69.6697 28.0915 65.4312 32.55 59.0732 32.55ZM59.0732 12.5942C54.7732 12.5942 52.1011 15.9458 52.1011 21.0193C52.1011 26.2159 54.8346 29.4444 59.0732 29.4444C63.4347 29.4444 66.0761 26.0929 66.0761 21.05C66.0761 15.8843 63.3118 12.5942 59.0732 12.5942ZM75.4268 32.2426H72.2017V16.0688H75.0275L75.4575 19.0821H75.6725C76.686 16.9605 78.6518 15.7613 81.0782 15.7613C84.7022 15.7613 86.6684 18.3749 86.6684 22.3723V32.2426H83.4126V22.7105C83.4126 19.8816 82.1225 18.5594 79.8497 18.5594C77.1775 18.5594 75.4268 20.6811 75.4268 23.7559V32.2426ZM104.668 32.2426V9.61153H101.413V19.2051H101.228C100.399 17.2064 98.4952 15.7613 95.7308 15.7613C91.6453 15.7613 88.8809 19.0206 88.8809 24.2787C88.8809 29.3522 91.5529 32.55 95.7 32.55C98.218 32.55 100.368 31.3509 101.228 29.3829H101.413L101.782 32.2426H104.668ZM101.413 25.1089C101.413 27.784 99.5082 29.7827 96.6831 29.7827C93.9794 29.7827 92.198 27.907 92.198 24.2787C92.198 20.8041 93.7954 18.5594 96.7438 18.5594C99.4158 18.5594 101.413 20.3736 101.413 23.3254V25.1089ZM114.982 32.55C110.252 32.55 107.119 29.1369 107.119 24.1864C107.119 19.2051 110.252 15.7613 114.982 15.7613C119.712 15.7613 122.814 19.2051 122.814 24.1864C122.814 29.1369 119.712 32.55 114.982 32.55ZM114.982 18.5594C112.187 18.5594 110.436 20.7119 110.436 24.1557C110.436 27.538 112.095 29.7212 114.982 29.7212C117.746 29.7212 119.497 27.6303 119.497 24.1249C119.497 20.8041 117.869 18.5594 114.982 18.5594Z" fill="#000000"/></g><defs><clipPath id="clip0_16761_5352"><rect width="124" height="40" fill="white" transform="translate(0 1)"/></clipPath></defs></svg>

<svg xmlns="http://www.w3.org/2000/svg" width="124" height="42" fill="none" viewBox="0 0 124 42"><g clip-path="url(#a)"><path fill="#000" fill-rule="evenodd" d="M22.504 41.05h-1.417c-11.033 0-19.978-8.955-19.978-20s8.945-20 19.978-20 19.978 8.954 19.978 20q-.002 1.483-.21 2.913h-2.797c.16-.947.245-1.92.245-2.914 0-9.518-7.708-17.234-17.216-17.234S3.872 11.53 3.872 21.049s7.707 17.235 17.215 17.235h10.24a19.9 19.9 0 0 1-8.823 2.765m12.65-5.73H21.086c-7.873 0-14.256-6.389-14.256-14.27 0-7.883 6.383-14.272 14.256-14.272s14.256 6.39 14.256 14.271c0 .998-.103 1.973-.298 2.914H32.21c.242-.93.371-1.906.371-2.914 0-6.354-5.145-11.506-11.493-11.506-6.347 0-11.493 5.152-11.493 11.506 0 6.355 5.146 11.506 11.493 11.506H37.49a20 20 0 0 1-2.337 2.766m-14.067-5.727H39.21q.63-1.334 1.06-2.766H21.087a5.775 5.775 0 0 1-5.771-5.778 5.775 5.775 0 0 1 5.771-5.777 5.775 5.775 0 0 1 5.772 5.777 5.75 5.75 0 0 1-.787 2.914h3.04c.329-.91.509-1.891.509-2.914 0-4.718-3.82-8.543-8.534-8.543-4.713 0-8.534 3.825-8.534 8.543 0 4.719 3.821 8.544 8.534 8.544m37.986 2.957c-6.573 0-10.566-4.704-10.566-11.5 0-7.01 4.208-11.5 10.566-11.5 6.542 0 10.597 4.643 10.597 11.47 0 7.072-4.239 11.53-10.597 11.53m0-19.956c-4.3 0-6.972 3.352-6.972 8.425 0 5.197 2.734 8.425 6.972 8.425 4.362 0 7.003-3.351 7.003-8.394 0-5.166-2.764-8.456-7.003-8.456m16.354 19.649h-3.225V16.069h2.826l.43 3.013h.215c1.013-2.122 2.979-3.32 5.405-3.32 3.624 0 5.59 2.613 5.59 6.61v9.87h-3.255v-9.531c0-2.83-1.29-4.152-3.563-4.152-2.672 0-4.423 2.122-4.423 5.197zm29.241 0V9.612h-3.255v9.593h-.185c-.829-1.999-2.733-3.444-5.497-3.444-4.086 0-6.85 3.26-6.85 8.518 0 5.073 2.672 8.271 6.819 8.271 2.518 0 4.668-1.2 5.528-3.167h.185l.369 2.86zm-3.255-7.134c0 2.675-1.905 4.674-4.73 4.674-2.704 0-4.485-1.876-4.485-5.504 0-3.475 1.597-5.72 4.546-5.72 2.672 0 4.669 1.815 4.669 4.766zm13.569 7.441c-4.73 0-7.863-3.413-7.863-8.364 0-4.98 3.133-8.425 7.863-8.425s7.832 3.444 7.832 8.425c0 4.95-3.102 8.364-7.832 8.364m0-13.99c-2.795 0-4.546 2.152-4.546 5.596 0 3.382 1.659 5.565 4.546 5.565 2.764 0 4.515-2.09 4.515-5.596 0-3.32-1.628-5.566-4.515-5.566" clip-rule="evenodd"/></g><defs><clipPath id="a"><path fill="#fff" d="M0 1h124v40H0z"/></clipPath></defs></svg>
